X:1
T:The Morning Star
S:based on Martin Hayes' version from 'Martin Hayes'
M: 4/4
L: 1/8
R: reel
K: Fmaj
A3B AFDE|F2Acde fd|cAGc AFDE |FAGEF3 G|
A~G3 AFDE|F2Acde fd|cAGc AFDE |FAGEF3 G|
Acde f3g|e~c3acgc |Acde f3g|{a}geced3c|
Acde f3g|e~c3acgc|A~c3 ~c2de|f3f{a}fedc|
